X:1
T:Non piu saette
T:Non piu saette
T:Raffaello Rontani
T:Source : Le varie Musiche a uno e due voci---Roma---G.B.Robletti---1622. Editor : André Vierendeels (06/05/16). 
T:Notes : Original clefs: C1, F4 Editorial accidentals above the staff, except in BC: (b) Original note values have been halved in 3-beat measures Figures above BC are notated in original print Dotted brackets indicate black notes
T:©
T:©
T:©
C:Raffaello Rontani
Z:©
%%score 1 2
L:1/8
Q:1/4=96
M:6/4
K:F
V:1 treble nm="Soprano" snm="S"
V:2 bass nm="BC" snm="BC"
V:1
 d2 d2 e2 f6 | f2 _e4 d6 | c2 c2 c2 c6 | c2 c4 B2 d2 c2 | _e3 e B2 c6 | _e4 e2 d2 d4 |[M:3/4] c6 :: %7
w: Non piu, non piu|sa- et- te,|che tropp' il sen|n'as- con- de, fatt' o|lu- ci da voi|pian- ghe pro- fon-|de,|
w: Non piu, non piu|fa- vil- le,|che da quel sen|di ghiac- cio, spi- ra|fo- co si cru-|d'ond' io mi sfac-|cio,|
w: Non piu, non piu|tor- men- ti,|poi che di stil|le'a- ma- re, per que-|st'oc- chi do- len-|ti'ho spar- so'un ma-|re,|
[M:4/4] z2 A2 c3 A | G3 F G4 | G4 z G c>B | A2 A2 z cfe | d2 d2 z d c>B | %12
w: gia perd' il|suo ri- go-|re, ai vo- stri|dar- di; ai vo- stri|dar- di, ai vo- stri|
w: m'a da- to|ban- do'ai gua-|i, nel bel se-|ren' de nel bel se-|ren' de, vo- stri'a- ni-|
w: e s'hà tuo|cor va- ghez-|za, d'u- sar con|_ lor, d'u- sar con|_ lor la lo- li-|
 B/A/B/F/ G/A/B/F/ G/A/B/c/ B/c/d/e/ | f2 g/f/e/d/ c3 B | c8 |[M:6/4] B4 c2 Bc dc BA | %16
w: lam- * * * * * * * * * * * * * * *|* * * * * * p'il|co-|re, vez- zo- * * * se _|
w: ma- * * * * * * * * * * * * * * *|* * * * * * ti|ra-|i, so- la _ _ _ pie- *|
w: ta _ _ _ _ _ _ _ _ _ _ _ _ _ _ _|_ _ _ _ _ _ fie-|rez-|za, pre- sto _ _ _ ve- *|
 G4 G2 AG AB c2 |[M:4/4] z2 d2 c4- | cBBA A4 | G8 :| %20
w: pu- pil- let- * * * te,|non piu,|_ non piu sa- et-|te|
w: ta scin- til- * * * le,|non piu,|_ non piu fa- vil-|le.|
w: dran- si spen- * * * ti,|non piu,|_ non piu tor- men-|ti.|
V:2
 G,2 F,2 E,2 D,2 E,2 F,2 | D,2 G,2 A,2 B,6 | A,2 G,2 F,2 _E,2 D,2 E,2 | G,2 F,4 B,,2 B,2 A,2 | %4
"^(b)" G,4 G,2 F,2 E,2 D,2 | C,2 D,2 _E,2 F,2 G,4 |[M:3/4] C,6 ::[M:4/4] F,,8 | F,,4 C,4 | %9
"^-natural" C,4 C,4 |"^b" F,,4 F,,4 | B,,4 B,,4 | _E,8 | D,4 _E,2 G,2 | F,8 | %15
[M:6/4] B,,4 F,,2 G,,4 A,,2 | B,,2 C,4 F,4 E,2 |[M:4/4] D,4 E,2 ^F,2 |"^4 #" G,2 C,2 D,4 | G,,8 :| %20

